svgs/light/tablets.svg

<svg xmlns="http://www.w3.org/2000/svg" viewBox="0 0 640 512"><!-- Font Awesome Pro 6.0.0-alpha2 by @fontawesome - https://fontawesome.com License - https://fontawesome.com/license (Commercial License) --><path d="M480 0C391.625 0 320 71.625 320 160S391.625 320 480 320S640 248.375 640 160S568.375 0 480 0ZM480 288C409.25 288 352 230.75 352 160C352 130.375 362.375 103.625 379.25 81.875L558.25 260.75C536.375 277.625 509.625 288 480 288ZM580.75 238.125L401.875 59.25C423.625 42.375 450.375 32 480 32C550.75 32 608 89.25 608 160C608 189.625 597.625 216.375 580.75 238.125ZM160 192C71.625 192 0 263.625 0 352S71.625 512 160 512S320 440.375 320 352S248.375 192 160 192ZM160 480C94.75 480 41.625 431.125 33.625 368H286.375C278.375 431.125 225.25 480 160 480ZM33.625 336C41.625 272.875 94.75 224 160 224S278.375 272.875 286.375 336H33.625Z"/></svg>

<svg xmlns="http://www.w3.org/2000/svg" viewBox="0 0 640 512"><!--! Font Awesome Pro 6.3.0 by @fontawesome - https://fontawesome.com License - https://fontawesome.com/license (Commercial License) Copyright 2023 Fonticons, Inc. --><path d="M480 0c-88.38 0-160 71.62-160 160s71.63 160 160 160s160-71.62 160-160S568.4 0 480 0zM480 288c-70.75 0-128-57.25-128-128c0-29.62 10.38-56.38 27.25-78.12l179 178.9C536.4 277.6 509.6 288 480 288zM580.8 238.1L401.9 59.25C423.6 42.38 450.4 32 480 32c70.75 0 128 57.25 128 128C608 189.6 597.6 216.4 580.8 238.1zM159.1 191.1C71.61 191.1 0 263.6 0 351.1S71.61 512 159.1 512S320 440.4 320 351.1S248.4 191.1 159.1 191.1zM160 480c-65.25 0-118.4-48.88-126.4-112h252.8C278.4 431.1 225.2 480 160 480zM33.62 336C41.62 272.9 94.75 224 160 224s118.4 48.88 126.4 112H33.62z"/></svg>
